!!!OTL: ES STUNDEN DREI ROSEN AUF EINEM ZWEIG
!!!ARE: Europa, Mitteleuropa, Deutschland
!!!SCT: B0125
!!!YEM: Copyright 1995, estate of Helmut Schaffrath.
**kern
*ICvox
*Ivox
*M4/4
*k[b-e-a-]
*E-:
{4B-
=1
4e-
8f
8a-
4g
8f
8e-
=2
4g
4a-
4b-
4r}
=3
{2ee-
8dd
8cc
4b-
=4
4cc
4b-
4r}
{4b-
=5
4ee-
8b-
8b-
4cc
8b-
8a-
=6
4g
4a-
4b-
4r}
=7
{2a-
8g
8f
4e-
=8
4f
4e-
4r}
==
!!!AGN: Ballade, Romanze
!!!ONB: ESAC (Essen Associative Code) Database: BOEHME
!!!AMT: simple quadruple
!!!AIN: vox
!!!EED: Helmut Schaffrath
!!!EEV: 1.0
*-
